X:1
T:Give of Your Sunshine
T:Give of Your Sunshine
T:Charles Hutchinson Gabriel
T:Annie M. Sexauer, 1906
T:Public Domain Courtesy of the Cyber Hymnal™
T:Public Domain Courtesy of the Cyber Hymnal™
C:Charles Hutchinson Gabriel
Z:Public Domain
Z:Courtesy of the Cyber Hymnal™
%%score ( 1 2 ) ( 3 4 )
L:1/8
Q:1/4=90
M:6/8
K:Bb
V:1 treble 
V:2 treble 
V:3 bass 
V:4 bass 
V:1
 [DF] | [DF][DG][DA] [DB][Dc][DB] | [EA]3 [CE]2 [CF] | [EG][EA][EB] [EA][EA][EG] | %4
w: 1.~O|give of your sun- shine to|o- thers! The|world’s full of sor- row and|
w: 2.~O|give of your sun- shine to|o- thers, ’Tis|bet- ter than sil- ver or|
w: 3.~O|give of your sun- shine to|o- thers, Some|soul to right paths it may|
 [DF]3- [DF]2 [DF] | [DF][DG][DA] [DB][Dc][DB] | [CA]3 [Fc]2 [Fd] | [Fc][FA][CF] [C=E][EA][EG] | %8
w: care, * And|ma- ny a heart will be|light- ened, If|you will your sun- shine but|
w: gold; * For|ma- ny of life’s rich- est|trea- sures Can|be nei- ther pur- chased or|
w: win; * May|strength- en a weak one that’s|tempt- ed, And|keep him from yield- ing to|
 F3- F2 F | [Ec][E=B][Ed] [Ec][EA][EF] | [DB]3 [DF]2 F | [Ec][E=B][Ed] [Ec][EA]F | %12
w: share. * You|know not what heart may be|faint- ing ’Neath|grief you may help to al-|
w: sold. * When|Je- sus blest earth with His|pre- sence, It|was not of wealth that He|
w: sin. * A|word, fit- ly spok- en, has|pow- er To|up- lift and strength- en the|
 [^Fd]3- [Fd]2 [=Fd] | [=Ed][EG][EA] [EB][EA][EG] | [Fc]3 [FA]2 F | [FG][FA][GB] [C=E][EA][EG] | %16
w: lay; * O|bind up the poor brok- en-|heart- ed, And|give them your sun- shine to-|
w: gave, * But|sym- pa- thy, ten- der- ness,|mer- cy, And|love that has po- wer to|
w: heart; * To|wea- ry and hea- vi- ly|la- den, ’Twill|cour- age and com- fort im-|
 F3- F2 ||"^Refrain" [EF] | [DF][DG][DA] [DB][Dc][DB] | [EA]3 [Fe]2 [Fe] | %20
w: day. *||||
w: save. *|O|give of your sun- shine to|o- thers And|
w: part. *||||
 [Fe]F[=EG] [_EA][FB][Fc] | [Fd]3- [Fd]2 [Fd] | [=Ed][EG][Ec] [Ec][EG][Ed] | [Ec]3 [EA]2 [EF] | %24
w: ||||
w: bright- en the world while you|may; * There’s|life- giv- ing pow- er in|sun- shine, O|
w: ||||
 [EA][EG][EF] [EA][EB][Ec] | [DB]3- [DB]2 |] %26
w: ||
w: scat- ter it free- ly to-|day. *|
w: ||
V:2
 x | x6 | x6 | x6 | x6 | x6 | x6 | x6 | F3- F2 F | x6 | x5 F | x5 F | x6 | x6 | x5 F | x6 | %16
 F3- F2 || x | x6 | x6 | x F x4 | x6 | x6 | x6 | x6 | x5 |] %26
V:3
 [B,,B,] | [B,,B,][B,,B,][B,,B,] [B,,F,][B,,F,][B,,F,] | [C,F,]3 [F,A,]2 [F,A,] | %3
 [F,A,][F,A,][F,A,] [F,C][F,C][F,A,] | [B,,B,]3- [B,,B,]2 [B,,B,] | %5
 [B,,B,][B,,B,][B,,B,] [B,,F,][B,,F,][B,,F,] | [C,F,]3 [A,,C]2 [B,,B,] | %7
 [C,A,][C,C][C,A,] [C,G,][C,C][C,B,] | [F,A,]3- [F,A,]2 [F,A,] | %9
 [F,A,][F,^G,][F,G,] [F,A,][F,C][F,A,] | [B,,F,]3 [B,,B,]2 [D,B,] | %11
 [F,A,][F,^G,][F,G,] [F,A,][F,C][E,A,] | [D,A,]3- [D,A,]2 [G,=B,] | %13
 [C,B,][C,B,][C,A,] [C,G,][C,C][B,C] | [A,C]3 [F,C]2 [F,A,] | %15
 [B,,D][B,,D][G,,D] [C,G,][C,C][C,B,] | [F,A,]3- [F,A,]2 || [F,A,] | %18
 [B,,B,][B,,B,][B,,B,] [B,,F,][B,,F,][B,,F,] | [C,F,]3 [C,A,]2 [C,A,] | %20
 [F,A,][F,A,][F,B,] [F,C][F,D][F,A,] | B,3- B,2 [B,,B,] | [C,B,][C,B,][C,B,] [C,B,][C,B,][C,B,] | %23
 [F,A,]3 [F,C]2 [F,A,] | [F,C][F,B,][F,A,] [F,C][F,G,][F,A,] | [B,,B,]3- [B,,B,]2 |] %26
V:4
 x | x6 | x6 | x6 | x6 | x6 | x6 | x6 | x6 | x6 | x6 | x6 | x6 | x6 | x6 | x6 | x5 || x | x6 | x6 | %20
 x6 | B,3- B,2 x | x6 | x6 | x6 | x5 |] %26

